X:3211
T:Collier's Reel, The
R:reel
D:Josie McDermott
D:Declan Masterson
Z:id:hn-reel-346
M:C|
L:1/8
K:Dmix
FD (3EFG ~A3B|cAdB cAGc|Add^c d2 (3efg|fdec dcAG|
FD (3EFG ~A3B|cAdB cAGc|Addc ABAG|1 EFGE FDDE:|2 EFGE FDDg||
|:fd (3efg fdec|Addc Adde|fd (3efg fdec|AGAB c2cd|
eaag efge|dfed cAGc|Addc ABAG|1 EFGE FDDg:|2 EFGE FDDE|]


